X: 41
T:Cliffs Of Moher, The
T:Cliffs Of Moher
M:6/8
F:http://blackrosetheband.googlepages.com/ABCTUNES.ABC May 2009
L:1/8
R:jig
K:Ador
|:"Am"a3 bag| eaf ged| c2A "Em"BAG| "G"EFG ABd|
"Am"eaa bag| eaf ged|c2A "Em"BAG| "G"EFG "Am"A3:|
"Am"e2e dBA| e2e dBA| "G"GAB dBA| "Em"GAB dBd|
"F"e2e dBA| e2e dBA| "G"GAB dBA| "Em"EFG "Am"A3|
"Am"efe dBA| efe dBA|"G"GAB dBA| "Em"GAB dBd|
"Am"efe "G"ded| "Am"cec "G"BeB| "Em"EFG AGE| "G"DB,G, "Am"A,3|

